X:12542
T:P. Joe's
R:Reel
S:(Sean Smyth)
H:
N:
D:From (unknown) solo recital
Z:Adrian Scahill
M:4/4
L:1/8
K:A
eAcB ~B2Ac|eAcB BAFA|eAcB ~B2Ac|1 ecBd cAAc:|2 ecBd cABG||\
A3c eAce|f2ba faa2|A3c eAce|1 faec BecB:|2 faec Bgaf||
